X:1
T:Title
%%score { ( 1 3 ) | ( 2 4 ) }
L:1/8
Q:1/4=108
M:4/4
K:Eb
V:1 treble nm="Grand Piano"
V:3 treble 
V:2 bass 
V:4 bass 
V:1
 G2 G2 [FB]2 [FB]2 | e3 f [Fd]4 | c2 d2 e2 G2 | [DB]8 | [Dd]2 [Ec]2 [FB]2 E2 | A3 G F4 | %6
w: R.~Menthal * * *||||||
 B2 B2 B2 =A2 | [DB]8 | B2 G2 B2 [Ge]2 | [Ae]4 [Ad]4 | d2 d2 e2 G2 | [EA]8 | [DF]2 G2 A2 B2 | %13
w: |||||||
 c4 B4 | F2 F2 A2 A2 | G8 | B2 B2 B2 B2 | B3 G [EA]4 | [EB]2 [DB]2 [_DB]2 [DE]2 | [Cc]8 | %20
w: |||||||
 c2 B2 E2 A2 | G2 F2 B4 | e2 e2 e2 [Fd]2 | [Ge]8 |] %24
w: ||||
V:2
 [E,B,E]2 [E,B,E]2 [D,B,]2 [D,B,]2 | [C,=A,]4 [B,,B,]4 | %2
 [A,CE]2 [A,B,F]2[K:bass] [G,B,E]2 [E,B,E]2 | [B,,B,]8 | [B,,B,]2 [C,B,]2 [D,A,]2 [E,G,]2 | %5
 [CE]4 z4 | [G,B,E]2 [_G,B,E]2 [F,CE]2 [F,CE]2 | [B,,B,]8 | [E,G,E]2 [E,B,E]2 [E,G,E]2 [E,B,]2 | %9
 [F,B,]4 [F,B,]4 | [B,F]2 [A,B,F]2[K:bass] [G,B,E]2 [E,B,E]2 | [C,A,]8 | %12
 [B,,B,]2 [E,B,E]2 [F,B,D]2 [G,B,E]2 | [A,E]4 [G,B,E]4 | [A,C]2 [A,C]2 [F,CF]2 [F,CE]2 | %15
 [G,=B,D]8 | [G,B,E]2 [G,B,E]2 [F,A,D]2 [F,A,D]2 | E4 z4 | [B,,G,]2 [A,,F,]2 [G,,E,]2 [G,,E,]2 | %19
 [A,,E,]8 | [A,E]2 [A,B,D]2 [G,B,]2 [F,CE]2 | [B,D]4[K:treble] z4 | %22
 [A,CE]2 [A,=B,F]2 [_B,G]2[K:bass] [B,,B,]2 | [E,B,]8 |] %24
V:3
 x8 | F4 z4 | x8 | x8 | x8 | x8 | x8 | x8 | x8 | x8 | x8 | x8 | x8 | x8 | x8 | x8 | x8 | x8 | x8 | %19
 x8 | x8 | x8 | x8 | x8 |] %24
V:4
 x8 | x8 | x4[K:bass] x4 | x8 | x8 | F,3 G, [A,CE]4 | x8 | x8 | x8 | x8 | x4[K:bass] x4 | x8 | x8 | %13
 x8 | x8 | x8 | x8 | [E,G,]3 [_D,B,] [C,A,]4 | x8 | x8 | x8 | z2 A,2[K:treble] [G,B,E]4 | %22
 x6[K:bass] x2 | x8 |] %24

